Home-compleks/dist/img/bench.svg

<?xml version="1.0" encoding="UTF-8"?>
<svg viewBox="0 0 80 80" xmlns="http://www.w3.org/2000/svg">
<path d="m73.333 45.333c0.7373 0 1.3333-0.5974 1.3333-1.3333v-5.3333c0-0.7359-0.596-1.3333-1.3333-1.3333h-6.6667v-1.3334c0-0.7359-0.596-1.3333-1.3333-1.3333-0.7374 0-1.3333 0.5974-1.3333 1.3333v1.3333h-37.333v-1.3333c0-0.7359-0.5973-1.3333-1.3333-1.3333-0.7359 0-1.3332 0.5974-1.3332 1.3333v1.3333h-6.6668c-0.7359 0-1.3332 0.5973-1.3332 1.3333v5.3334c0 0.7359 0.5973 1.3333 1.3332 1.3333h56zm-54.667-2.6666v-2.6667h53.333v2.6667h-53.333z" fill="#D4C17F"/>
<path d="m48 29.333c-2.156 0-3.5494 1.6386-3.7014 1.8267-0.4614 0.5667-0.376 1.3947 0.1879 1.8614 0.5654 0.468 1.4015 0.3867 1.8747-0.1706 0.0053-0.0094 0.728-0.8506 1.6386-0.8506 0.9107 0 1.6321 0.8414 1.6321 0.8414 0.264 0.324 0.6479 0.492 1.0359 0.492 0.2959 0 0.592-0.0974 0.84-0.2986 0.572-0.4641 0.6573-1.3041 0.1933-1.8747-0.1517-0.1883-1.5452-1.827-3.7011-1.827z" fill="#D4C17F"/>
<path d="m73.333 56c0.7373 0 1.3333-0.5973 1.3333-1.3333v-5.3333c0-0.7359-0.596-1.3332-1.3333-1.3332h-6.6667v-1.3333c0-0.736-0.596-1.3333-1.3333-1.3333-0.7374 0-1.3333 0.5973-1.3333 1.3333v1.3333h-37.333v-1.3333c0-0.736-0.5973-1.3333-1.3333-1.3333-0.7359 0-1.3332 0.5973-1.3332 1.3333v1.3333h-6.6668c-0.7359 0-1.3332 0.5973-1.3332 1.3332v5.3333c0 0.736 0.5973 1.3333 1.3332 1.3333h56zm-54.667-2.6667v-2.6667h53.333v2.6667h-53.333z" fill="#D4C17F"/>
<path d="m54.965 26.173c0.2641 0.3253 0.648 0.4933 1.0359 0.4933 0.296 0 0.5921-0.0974 0.84-0.2986 0.5721-0.4641 0.6574-1.3041 0.1933-1.8747-0.152-0.188-1.5453-1.8267-3.7014-1.8267s-3.5494 1.6386-3.7014 1.8267c-0.4614 0.5667-0.3759 1.3947 0.188 1.8614 0.5653 0.4694 1.4014 0.3867 1.8733-0.1706 0.0067-0.0094 0.7293-0.8507 1.64-0.8507 0.9111-1e-4 1.6323 0.8399 1.6323 0.8399z" fill="#D4C17F"/>
<path d="m1.3401 17.467c0.06796 0.6814 0.6414 1.2 1.3267 1.2h8c0.6853 0 1.2586-0.5186 1.3267-1.2l1.3333-13.333c0.0373-0.37594-0.0853-0.74797-0.3386-1.028-0.252-0.27875-0.6106-0.43859-0.988-0.43859h-4.0001v-1.3336c0-0.73594-0.59735-1.3333-1.3333-1.3333-0.73593 0-1.3333 0.59734-1.3333 1.3333v1.3333h-4c-0.37734 0-0.73593 0.16-0.98797 0.4386-0.25328 0.28-0.37594 0.65203-0.33859 1.028l1.3331 13.334zm9.1867-12.133-1.0667 10.667h-5.5867l-1.0667-10.667h7.7202z" fill="#D4C17F"/>
<path d="m37.333 30.667c0 1.4906 0.6093 2.8774 1.7159 3.9027 0.2559 0.2373 0.5814 0.3559 0.9067 0.3559 0.3574 0 0.7147-0.144 0.9774-0.4267 0.5-0.54 0.4693-1.3841-0.0707-1.8853-0.5573-0.5147-0.8626-1.2067-0.8626-1.9467 0-1.1041 0.7026-2.1053 1.7506-2.4907 0.4347-0.16 0.7547-0.5346 0.8453-0.9893 0.092-0.4547-0.0614-0.9241-0.4-1.24-0.5573-0.5147-0.8626-1.2068-0.8626-1.9468 0-1.3867 1.092-2.5467 2.4853-2.6426 0.512-0.0347 0.9573-0.3586 1.1479-0.8347 0.1894-0.4759 0.0907-1.0186-0.2559-1.3959-0.4586-0.5-0.7106-1.1374-0.7106-1.7933 0-1.3867 1.092-2.5467 2.4853-2.6427 0.512-0.0347 0.9573-0.3586 1.148-0.8347 0.1893-0.4759 0.0906-1.0186-0.256-1.3959-0.4573-0.5-0.7106-1.1373-0.7106-1.7933 0-1.192 0.812-2.244 1.9733-2.5586 0.3693-0.1 0.6759-0.35204 0.8453-0.69204 0.1706-0.34 0.1867-0.73859 0.044-1.0906-0.1293-0.32672-0.1959-0.66-0.1959-0.99203 0-1.4706 1.1959-2.6667 2.6667-2.6667 1.4707 0 2.6668 1.1959 2.6668 2.6667 0 0.33203-0.0668 0.66531-0.196 0.99203-0.1426 0.35203-0.1267 0.75062 0.0441 1.0906 0.1693 0.34 0.4759 0.59204 0.8453 0.69204 1.1614 0.31468 1.9733 1.3667 1.9733 2.5586 0 0.656-0.2533 1.2933-0.7107 1.7933-0.3467 0.3773-0.4453 0.92-0.2559 1.3959 0.1906 0.476 0.6359 0.8 1.148 0.8347 1.3933 0.096 2.4853 1.256 2.4853 2.6427 0 0.6559-0.2533 1.2933-0.7106 1.7933-0.3468 0.3773-0.4453 0.92-0.256 1.3959 0.1907 0.4759 0.636 0.8 1.148 0.8347 1.3933 0.0959 2.4853 1.2559 2.4853 2.6426 0 0.74-0.3053 1.4321-0.8626 1.9468-0.3386 0.3159-0.4921 0.7853-0.4 1.24 0.0906 0.4547 0.4106 0.8293 0.8467 0.9893 1.0467 0.3854 1.7493 1.3868 1.7493 2.4907 0 0.7359 0.596 1.3332 1.3333 1.3332 0.7374 0 1.3333-0.5973 1.3333-1.3332 0-1.6241-0.7533-3.1347-1.9786-4.1294 0.4214-0.7694 0.6453-1.6347 0.6453-2.5374 0-2.0853-1.2267-3.9173-3.0159-4.784 0.2294-0.5974 0.3494-1.2347 0.3494-1.8827 0-2.0853-1.2268-3.9173-3.016-4.784 0.2294-0.5974 0.3494-1.2347 0.3494-1.8827 0-1.9441-1.0694-3.7-2.7147-4.6294 0.032-0.23328 0.048-0.46797 0.048-0.70406-6e-4 -2.9409-2.3925-5.333-5.3339-5.333s-5.3333 2.392-5.3333 5.3333c0 0.23594 0.0159 0.47063 0.048 0.70406-1.6454 0.92938-2.7147 2.6853-2.7147 4.6294 0 0.648 0.12 1.2853 0.3493 1.8827-1.7893 0.8667-3.0159 2.6986-3.0159 4.784 0 0.648 0.12 1.2854 0.3494 1.8827-1.7894 0.8667-3.016 2.6986-3.016 4.7841 0 0.9026 0.2241 1.7679 0.6454 2.5373-1.2255 0.9945-1.9789 2.5052-1.9789 4.1292z" fill="#D4C17F"/>
<path d="m50.159 18.561c0.6774 0.28 1.4574-0.0427 1.7414-0.72 0.0254-0.0641 0.0627-0.1347 0.1-0.2041 0.0374 0.0668 0.0721 0.136 0.0974 0.1986 0.2106 0.5174 0.7094 0.8321 1.2359 0.8321 0.168 0 0.3374-0.0321 0.5013-0.1 0.6826-0.276 1.012-1.0547 0.7347-1.736-0.148-0.3614-0.9613-2.1653-2.5694-2.1653-1.608 0-2.4214 1.8041-2.5694 2.1653-0.2759 0.6786 0.0508 1.4494 0.7281 1.7294z" fill="#D4C17F"/>
<path d="m78.667 77.333h-21.333c-0.7374 0-1.3333 0.5973-1.3333 1.3333 0 0.7359 0.5959 1.3332 1.3333 1.3332h21.333c0.7373 0 1.3332-0.5973 1.3332-1.3332 0-0.736-0.5957-1.3333-1.3331-1.3333z" fill="#D4C17F"/>
<path d="m78.667 58.667h-12v-1.3333c0-0.7359-0.5959-1.3332-1.3333-1.3332-0.7373 0-1.3332 0.5973-1.3332 1.3332v1.3333h-37.334v-1.3333c0-0.7359-0.5973-1.3332-1.3333-1.3332-0.7359 0-1.3332 0.5973-1.3332 1.3332v1.3333h-12c-0.7359 0-1.3333 0.5974-1.3333 1.3333v5.3333c0 0.7359 0.5974 1.3333 1.3333 1.3333h4v6.6667c0 0.7359 0.5973 1.3333 1.3333 1.3333 0.7359 0 1.3333-0.5974 1.3333-1.3333v-6.6667h53.333v6.6667c0 0.7359 0.5959 1.3333 1.3333 1.3333 0.7373 0 1.3333-0.5974 1.3333-1.3333v-6.6667h4c0.7373 0 1.3332-0.5974 1.3332-1.3333v-5.3333c2e-4 -0.7359-0.5957-1.3333-1.3331-1.3333zm-1.3334 5.3333h-64v-2.6667h64v2.6667z" fill="#D4C17F"/>
<path d="m20 77.333h-12v-54.667c0-0.7359-0.59735-1.3333-1.3333-1.3333-0.73594 0-1.3333 0.5974-1.3333 1.3333v54.667h-4c-0.73593 0-1.3333 0.5974-1.3333 1.3333 0 0.736 0.59719 1.3333 1.3331 1.3333h18.667c0.7359 0 1.3333-0.5973 1.3333-1.3333 0-0.7359-0.5974-1.3334-1.3333-1.3334z" fill="#D4C17F"/>
<path d="m52 77.333h-2.6667c-0.7374 0-1.3333 0.5973-1.3333 1.3333 0 0.7359 0.5959 1.3332 1.3333 1.3332h2.6667c0.7373 0 1.3333-0.5973 1.3333-1.3332 0-0.736-0.596-1.3333-1.3333-1.3333z" fill="#D4C17F"/>
<path d="m41.333 77.333h-13.333c-0.7359 0-1.3333 0.5973-1.3333 1.3333 0 0.7359 0.5974 1.3334 1.3333 1.3334h13.333c0.7373 0 1.3333-0.5973 1.3333-1.3333 0-0.7359-0.596-1.3334-1.3333-1.3334z" fill="#D4C17F"/>
</svg>

<svg width="80" height="80" viewBox="0 0 80 80" fill="none" xmlns="http://www.w3.org/2000/svg">
<path d="M73.3333 45.3333C74.0706 45.3333 74.6666 44.7359 74.6666 44V38.6667C74.6666 37.9308 74.0706 37.3334 73.3333 37.3334H66.6666V36C66.6666 35.2641 66.0706 34.6667 65.3333 34.6667C64.5959 34.6667 64 35.2641 64 36V37.3333H26.6667V36C26.6667 35.2641 26.0694 34.6667 25.3334 34.6667C24.5975 34.6667 24.0002 35.2641 24.0002 36V37.3333H17.3334C16.5975 37.3333 16.0002 37.9306 16.0002 38.6666V44C16.0002 44.7359 16.5975 45.3333 17.3334 45.3333H25.3334H65.3334H73.3333ZM18.6667 42.6667V40H72V42.6667H18.6667Z" fill="#D4C17F"/>
<path d="M48 29.3333C45.844 29.3333 44.4506 30.9719 44.2986 31.16C43.8372 31.7267 43.9226 32.5547 44.4865 33.0214C45.0519 33.4894 45.888 33.4081 46.3612 32.8508C46.3665 32.8414 47.0892 32.0002 47.9998 32.0002C48.9105 32.0002 49.6319 32.8416 49.6319 32.8416C49.8959 33.1656 50.2798 33.3336 50.6678 33.3336C50.9637 33.3336 51.2598 33.2362 51.5078 33.035C52.0798 32.5709 52.1651 31.7309 51.7011 31.1603C51.5494 30.972 50.1559 29.3333 48 29.3333Z" fill="#D4C17F"/>
<path d="M73.3333 56C74.0706 56 74.6666 55.4027 74.6666 54.6667V49.3334C74.6666 48.5975 74.0706 48.0002 73.3333 48.0002H66.6666V46.6669C66.6666 45.9309 66.0706 45.3336 65.3333 45.3336C64.5959 45.3336 64 45.9309 64 46.6669V48.0002H26.6667V46.6669C26.6667 45.9309 26.0694 45.3336 25.3334 45.3336C24.5975 45.3336 24.0002 45.9309 24.0002 46.6669V48.0002H17.3334C16.5975 48.0002 16.0002 48.5975 16.0002 49.3334V54.6667C16.0002 55.4027 16.5975 56 17.3334 56H25.3334H65.3334H73.3333ZM18.6667 53.3333V50.6666H72V53.3333H18.6667Z" fill="#D4C17F"/>
<path d="M54.9653 26.1733C55.2294 26.4986 55.6133 26.6666 56.0012 26.6666C56.2972 26.6666 56.5933 26.5692 56.8412 26.368C57.4133 25.9039 57.4986 25.0639 57.0345 24.4933C56.8825 24.3053 55.4892 22.6666 53.3331 22.6666C51.177 22.6666 49.7837 24.3052 49.6317 24.4933C49.1703 25.06 49.2558 25.888 49.8197 26.3547C50.385 26.8241 51.2211 26.7414 51.693 26.1841C51.6997 26.1747 52.4223 25.3334 53.333 25.3334C54.2441 25.3333 54.9653 26.1733 54.9653 26.1733Z" fill="#D4C17F"/>
<path d="M1.34008 17.4667C1.40804 18.1481 1.98148 18.6667 2.66679 18.6667H10.6668C11.3521 18.6667 11.9254 18.1481 11.9935 17.4667L13.3268 4.13344C13.3641 3.7575 13.2415 3.38547 12.9882 3.10547C12.7362 2.82672 12.3776 2.66688 12.0002 2.66688H8.00008V1.33328C8.00008 0.597344 7.40273 0 6.66679 0C5.93086 0 5.33351 0.597344 5.33351 1.33328V2.66656H1.33351C0.956169 2.66656 0.597576 2.82656 0.345544 3.10516C0.0922631 3.38516 -0.0303931 3.75719 0.00695064 4.13312L1.34008 17.4667ZM10.5268 5.33328L9.46008 16H3.87336L2.80664 5.33328H10.5268Z" fill="#D4C17F"/>
<path d="M37.3333 30.6667C37.3333 32.1573 37.9426 33.5441 39.0492 34.5694C39.3051 34.8067 39.6306 34.9253 39.9559 34.9253C40.3133 34.9253 40.6706 34.7813 40.9333 34.4986C41.4333 33.9586 41.4026 33.1145 40.8626 32.6133C40.3053 32.0986 40 31.4066 40 30.6666C40 29.5625 40.7026 28.5613 41.7506 28.1759C42.1853 28.0159 42.5053 27.6413 42.5959 27.1866C42.6879 26.7319 42.5345 26.2625 42.1959 25.9466C41.6386 25.4319 41.3333 24.7398 41.3333 23.9998C41.3333 22.6131 42.4253 21.4531 43.8186 21.3572C44.3306 21.3225 44.7759 20.9986 44.9665 20.5225C45.1559 20.0466 45.0572 19.5039 44.7106 19.1266C44.252 18.6266 44 17.9892 44 17.3333C44 15.9466 45.092 14.7866 46.4853 14.6906C46.9973 14.6559 47.4426 14.332 47.6333 13.8559C47.8226 13.38 47.7239 12.8373 47.3773 12.46C46.92 11.96 46.6667 11.3227 46.6667 10.6667C46.6667 9.47469 47.4787 8.42266 48.64 8.10813C49.0093 8.00813 49.3159 7.75609 49.4853 7.41609C49.6559 7.07609 49.672 6.6775 49.5293 6.32547C49.4 5.99875 49.3334 5.66547 49.3334 5.33344C49.3334 3.86281 50.5293 2.66672 52.0001 2.66672C53.4708 2.66672 54.6669 3.86266 54.6669 5.33344C54.6669 5.66547 54.6001 5.99875 54.4709 6.32547C54.3283 6.6775 54.3442 7.07609 54.515 7.41609C54.6843 7.75609 54.9909 8.00813 55.3603 8.10813C56.5217 8.42281 57.3336 9.47484 57.3336 10.6667C57.3336 11.3227 57.0803 11.96 56.6229 12.46C56.2762 12.8373 56.1776 13.38 56.367 13.8559C56.5576 14.3319 57.0029 14.6559 57.515 14.6906C58.9083 14.7866 60.0003 15.9466 60.0003 17.3333C60.0003 17.9892 59.747 18.6266 59.2897 19.1266C58.9429 19.5039 58.8444 20.0466 59.0337 20.5225C59.2244 20.9984 59.6697 21.3225 60.1817 21.3572C61.575 21.4531 62.667 22.6131 62.667 23.9998C62.667 24.7398 62.3617 25.4319 61.8044 25.9466C61.4658 26.2625 61.3123 26.7319 61.4044 27.1866C61.495 27.6413 61.815 28.0159 62.2511 28.1759C63.2978 28.5613 64.0004 29.5627 64.0004 30.6666C64.0004 31.4025 64.5964 31.9998 65.3337 31.9998C66.0711 31.9998 66.667 31.4025 66.667 30.6666C66.667 29.0425 65.9137 27.5319 64.6884 26.5372C65.1098 25.7678 65.3337 24.9025 65.3337 23.9998C65.3337 21.9145 64.107 20.0825 62.3178 19.2158C62.5472 18.6184 62.6672 17.9811 62.6672 17.3331C62.6672 15.2478 61.4404 13.4158 59.6512 12.5491C59.8806 11.9517 60.0006 11.3144 60.0006 10.6664C60.0006 8.72234 58.9312 6.96641 57.2859 6.03703C57.3179 5.80375 57.3339 5.56906 57.3339 5.33297C57.3333 2.39203 54.9414 0 52 0C49.0586 0 46.6667 2.39203 46.6667 5.33328C46.6667 5.56922 46.6826 5.80391 46.7147 6.03734C45.0693 6.96672 44 8.72266 44 10.6667C44 11.3147 44.12 11.952 44.3493 12.5494C42.56 13.4161 41.3334 15.248 41.3334 17.3334C41.3334 17.9814 41.4534 18.6188 41.6828 19.2161C39.8934 20.0828 38.6668 21.9147 38.6668 24.0002C38.6668 24.9028 38.8909 25.7681 39.3122 26.5375C38.0867 27.532 37.3333 29.0427 37.3333 30.6667Z" fill="#D4C17F"/>
<path d="M50.1587 18.5614C50.8361 18.8414 51.6161 18.5187 51.9001 17.8414C51.9255 17.7773 51.9628 17.7067 52.0001 17.6373C52.0375 17.7041 52.0722 17.7733 52.0975 17.8359C52.3081 18.3533 52.8069 18.668 53.3334 18.668C53.5014 18.668 53.6708 18.6359 53.8347 18.568C54.5173 18.292 54.8467 17.5133 54.5694 16.832C54.4214 16.4706 53.6081 14.6667 52 14.6667C50.392 14.6667 49.5786 16.4708 49.4306 16.832C49.1547 17.5106 49.4814 18.2814 50.1587 18.5614Z" fill="#D4C17F"/>
<path d="M78.6667 77.3333H57.3333C56.5959 77.3333 56 77.9306 56 78.6666C56 79.4025 56.5959 79.9998 57.3333 79.9998H78.6666C79.4039 79.9998 79.9998 79.4025 79.9998 78.6666C79.9998 77.9306 79.4041 77.3333 78.6667 77.3333Z" fill="#D4C17F"/>
<path d="M78.6667 58.6667H66.6667V57.3334C66.6667 56.5975 66.0708 56.0002 65.3334 56.0002C64.5961 56.0002 64.0002 56.5975 64.0002 57.3334V58.6667H26.6667V57.3334C26.6667 56.5975 26.0694 56.0002 25.3334 56.0002C24.5975 56.0002 24.0002 56.5975 24.0002 57.3334V58.6667H12C11.2641 58.6667 10.6667 59.2641 10.6667 60V65.3333C10.6667 66.0692 11.2641 66.6666 12 66.6666H16V73.3333C16 74.0692 16.5973 74.6666 17.3333 74.6666C18.0692 74.6666 18.6666 74.0692 18.6666 73.3333V66.6666H72V73.3333C72 74.0692 72.5959 74.6666 73.3333 74.6666C74.0706 74.6666 74.6666 74.0692 74.6666 73.3333V66.6666H78.6666C79.4039 66.6666 79.9998 66.0692 79.9998 65.3333V60C80 59.2641 79.4041 58.6667 78.6667 58.6667ZM77.3333 64H13.3333V61.3333H77.3333V64Z" fill="#D4C17F"/>
<path d="M20 77.3333H8V22.6667C8 21.9308 7.40265 21.3334 6.66672 21.3334C5.93078 21.3334 5.33343 21.9308 5.33343 22.6667V77.3334H1.33343C0.597496 77.3334 0.000152588 77.9308 0.000152588 78.6667C0.000152588 79.4027 0.59734 80 1.33328 80H20C20.7359 80 21.3333 79.4027 21.3333 78.6667C21.3333 77.9308 20.7359 77.3333 20 77.3333Z" fill="#D4C17F"/>
<path d="M52 77.3333H49.3333C48.5959 77.3333 48 77.9306 48 78.6666C48 79.4025 48.5959 79.9998 49.3333 79.9998H52C52.7373 79.9998 53.3333 79.4025 53.3333 78.6666C53.3333 77.9306 52.7373 77.3333 52 77.3333Z" fill="#D4C17F"/>
<path d="M41.3333 77.3333H28C27.2641 77.3333 26.6667 77.9306 26.6667 78.6666C26.6667 79.4025 27.2641 80 28 80H41.3333C42.0706 80 42.6666 79.4027 42.6666 78.6667C42.6666 77.9308 42.0706 77.3333 41.3333 77.3333Z" fill="#D4C17F"/>
</svg>
